X: 574
P: Longways for as many as will
M: 3/2
L: 1/8
K: C
e2c2 cd ef defg | a2 gfed efgfef |\
d2B2 Bc dB ed cB | A2f2 f2e2 fedc |\
e2c2 c2 de fe fg | a2f2 fga2 g2f2 |\
e4 f4 d3c | B4 e4 c3B |\

